components/icon/svg/24/action_heart.svg

<?xml version="1.0" encoding="UTF-8"?>
<svg width="24px" height="24px" viewBox="0 0 24 24" version="1.1" xmlns="http://www.w3.org/2000/svg" xmlns:xlink="http://www.w3.org/1999/xlink">
    <!-- Generator: Sketch 64 (93537) - https://sketch.com -->
    <title>ic-db_action_heart_24</title>
    <desc>Created with Sketch.</desc>
    <g id="Symbols" stroke="none" stroke-width="1" fill="none" fill-rule="evenodd">
        <g id="24dp-Icon/Action/Heart" fill="#282D37">
            <path d="M16.5625,3.5 C19.5938,3.5 22,5.96875 22,8.96875 C22,10.34375 21.5333,11.75208 20.4375,12.8125 L12.6875,20.3125 C12.5,20.5 12.2812,20.59375 12,20.59375 C11.75,20.59375 11.5,20.5 11.3125,20.3125 L3.5938,12.8125 C2.5318,11.78066 2,10.375 2,8.96875 C2,5.96875 4.4375,3.5 7.4375,3.5 C8.875,3.5 10.2655,4.078 11.2812,5.09375 L12,5.8125 L12.7188,5.09375 C13.7657,4.04676 15.1875,3.5 16.5625,3.5 Z M16.5625,5.5 C15.6875,5.5 14.7812,5.875 14.125,6.53125 L12.7188,7.9375 C12.5312,8.125 12.25,8.25 12,8.25 C11.75,8.25 11.5,8.125 11.3125,7.9375 L9.875,6.5 C9.25,5.875 8.3438,5.5 7.4375,5.5 C5.5312,5.5 4,7.0625 4,8.96875 C4,9.84375 4.3189,10.71213 5,11.375 L12,18.1875 L19,11.375 C19.6659,10.72698 20.0312,9.84375 20.0312,8.9375 C20.0312,7.0625 18.4688,5.5 16.5625,5.5 Z" id="🎨-Color"></path>
        </g>
    </g>
</svg>

<svg width="24" height="24" xmlns="http://www.w3.org/2000/svg"><path d="M16.563 3.5C19.593 3.5 22 5.969 22 8.969c0 1.375-.467 2.783-1.563 3.844l-7.75 7.5a.919.919 0 01-.687.28.97.97 0 01-.688-.28l-7.718-7.5C2.532 11.78 2 10.374 2 8.969c0-3 2.438-5.469 5.438-5.469 1.437 0 2.827.578 3.843 1.594l.719.718.719-.718A5.485 5.485 0 0116.563 3.5zm0 2c-.875 0-1.782.375-2.438 1.031l-1.406 1.407A1.077 1.077 0 0112 8.25c-.25 0-.5-.125-.688-.313L9.876 6.5a3.506 3.506 0 00-2.438-1C5.532 5.5 4 7.063 4 8.969c0 .875.319 1.743 1 2.406l7 6.813 7-6.813a3.404 3.404 0 001.031-2.438c0-1.874-1.562-3.437-3.468-3.437z" fill="#282D37" fill-rule="evenodd"/></svg>
